img/footer/insta.svg

<svg fill="none" height="29" viewBox="0 0 28 29" width="28" xmlns="http://www.w3.org/2000/svg"><circle cx="14" cy="14.1943" fill="#e3b873" r="14"/><g stroke="#fff" stroke-width="1.5"><path d="m17 8.59375h-6c-1.65684 0-2.99999 1.34315-2.99999 3.00005v6c0 1.6568 1.34315 3 2.99999 3h6c1.6569 0 3-1.3432 3-3v-6c0-1.6569-1.3431-3.00005-3-3.00005z"/><path d="m16.4 14.2159c.0741.4994-.0112 1.0094-.2437 1.4574-.2325.4481-.6004.8115-1.0513 1.0384-.4509.227-.9619.306-1.4603.2258s-.9588-.3155-1.3158-.6725c-.3569-.3569-.5922-.8173-.6724-1.3157s-.0012-1.0094.2257-1.4603c.227-.451.5903-.8188 1.0384-1.0513s.9581-.3178 1.4574-.2438c.5094.0756.9809.3129 1.345.677.3642.3641.6015.8357.677 1.345z" stroke-linecap="round" stroke-linejoin="round"/></g></svg>

<svg width="28" height="29" viewBox="0 0 28 29" fill="none" xmlns="http://www.w3.org/2000/svg">
<circle cx="14" cy="14.1943" r="14" fill="#E3B873"/>
<path d="M17 8.59375H11C9.34316 8.59375 8.00001 9.9369 8.00001 11.5938V17.5938C8.00001 19.2506 9.34316 20.5938 11 20.5938H17C18.6569 20.5938 20 19.2506 20 17.5938V11.5938C20 9.9369 18.6569 8.59375 17 8.59375Z" stroke="white" stroke-width="1.5"/>
<path d="M16.4 14.2159C16.4741 14.7153 16.3888 15.2253 16.1563 15.6733C15.9238 16.1214 15.5559 16.4848 15.105 16.7117C14.6541 16.9387 14.1431 17.0177 13.6447 16.9375C13.1463 16.8573 12.6859 16.622 12.3289 16.265C11.972 15.9081 11.7367 15.4477 11.6565 14.9493C11.5763 14.4509 11.6553 13.9399 11.8822 13.489C12.1092 13.038 12.4725 12.6702 12.9206 12.4377C13.3687 12.2052 13.8787 12.1199 14.378 12.1939C14.8874 12.2695 15.3589 12.5068 15.723 12.8709C16.0872 13.235 16.3245 13.7066 16.4 14.2159Z" stroke="white" stroke-width="1.5" stroke-linecap="round" stroke-linejoin="round"/>
</svg>
